X: 535
T: Zensko Kresteno
O: Macedonia
F: http://www.youtube.com/watch?v=cuFVnR0w8Dc
M: 12/8
L: 1/8
Q: 1/4=200
K: Cm
%%MIDI beatstring fppmppmppmpp
|:B,2z BAG FEF EDD |B,2z BAG FEF EDD   |
  B,2z BAG FEF EDD |E2D EFD B,CB, C3   :|
|:B,DD DGF EFE DDz |B,DD DGF EFE DDz   |
  B,DD DGF EFE DDz |E2D EFD B,CB, C3   :|
|:=EFz AGF E_DC DEz| =EFz AGF E_DC DEz |\
  =EFz AGF E_DC DEz|=EFz AGF E_DC- C2z :|



